X: 16628
T: Hangman's
R: reel
M: 4/4
K: Amajor
|:"A"A2AA "E"B2BB|"A"c2cc "E"B2BB|"A"A2AA "E"B2BB|"A"c2cc "E"B2BB|
"A"A2AA "E"B2BB|"A"c2cc "E"B2BB|"A"BcB2 A2F2|1 ."E"E2F2 "A"A2AA:|2 ."E"E2F2 "A"A4|
"A"e2c2 e2c2|"E"BcB2 "A"c4|"A"e2c2 e2c2|"E"BcB2 "A"A4|
"A"e2c2 e2c2|"E"BcB2 "A"c4|"A"e2c2 e2c2|"E"BcB2 "A"A4|
"E"B2BB B2BB|"A"c2B2 A2AA|"E"B2BB B2BB|"A"c2B2 A4|
"E"B2BB B2BB|"A"c2B2 A2AA|"E"B2BB B2BB|"A"c2B2 A4|
|:"A"c2cc "D"d2dd|"A"c2cc "D"d2dd|"A"c2cc "D"d2dd|"A"c2A2 "E"B2BB|
"A"c2cc "D"d2dd|"A"c2cc "D"d2dd|"A"c2B2 "D"A2E2|1 ."E"F2A2 "A"A2AA:|2 ."E"F2A2 "A"A4||

